packages/core/src/svgs/tokens/branded/BITCI.svg

<svg width="24" height="24" viewBox="0 0 24 24" fill="none" xmlns="http://www.w3.org/2000/svg">
<path fill-rule="evenodd" clip-rule="evenodd" d="M6.37623 2H9.50129V2.625H11.3763V2H14.5012V2.63751C15.4703 2.70263 16.3953 3.06717 17.1482 3.68074C17.901 4.29431 18.4448 5.12662 18.7043 6.06261C18.9635 6.9986 18.9258 7.99206 18.596 8.90565C18.2665 9.81927 17.6611 10.6079 16.8637 11.1625C17.9955 11.6366 18.9283 12.4879 19.5036 13.5716C20.0789 14.6554 20.2613 15.905 20.0198 17.108C19.7783 18.3111 19.1279 19.3935 18.1788 20.1713C17.2297 20.9491 16.0408 21.3744 14.8137 21.375H14.5012V22H11.3763V21.375H9.50129V22H6.37623V21.375H3.87622L7.62622 17H5.75123V7H7.62622L3.87622 2.625H6.37623V2ZM9.50129 6.375H12.6262C12.8725 6.375 13.1162 6.42351 13.3437 6.51773C13.5712 6.61195 13.778 6.75007 13.952 6.92418C14.1261 7.09829 14.2642 7.30498 14.3586 7.53248C14.4528 7.75997 14.5012 8.00377 14.5012 8.25001C14.5012 8.49624 14.4528 8.74006 14.3586 8.96754C14.2642 9.19495 14.1261 9.40175 13.952 9.57587C13.778 9.75 13.5712 9.8881 13.3437 9.98231C13.1162 10.0765 12.8725 10.1251 12.6262 10.1251H9.50129V6.375ZM9.50129 13.25H14.1887C14.7689 13.25 15.3253 13.4804 15.7355 13.8906C16.1458 14.301 16.3762 14.8574 16.3762 15.4375C16.3762 16.0176 16.1458 16.5741 15.7355 16.9844C15.3253 17.3946 14.7689 17.625 14.1887 17.625H9.50129V13.25Z" fill="#FF4802"/>
</svg>

<svg xmlns="http://www.w3.org/2000/svg" width="24" height="24" fill="none" viewBox="0 0 24 24">
    <path fill="#FF4802" fill-rule="evenodd" d="M6.376 2h3.125v.625h1.875V2h3.125v.638a4.688 4.688 0 0 1 2.363 8.525 5.313 5.313 0 0 1-2.05 10.212H14.5V22h-3.125v-.625H9.501V22H6.376v-.625h-2.5L7.626 17H5.751V7h1.875l-3.75-4.375h2.5zm3.125 4.375h3.125a1.875 1.875 0 1 1 0 3.75H9.501zm0 6.875h4.688a2.187 2.187 0 1 1 0 4.375H9.5z" clip-rule="evenodd"/>
</svg>
